!! Isochronous pitch passage.
!! Solo-line.
!! From Bartok, Contrast, 18 measures before "214"
!! violin
!! 2/4 meter
**kern	**metpos
*M2/4	*M2/4
*tb16	*tb16
=1	=1
16ee-	1
16bb-	4
16ggg	3
16bb-	4
16ff	2
16aa	4
16dd	3
16aa	4
=2	=2
16eee	1
16gg#	4
16cc#	3
16gg#	4
16b	2
16ff#	4
16ddd	3
16ff#	4
=3	=3
16b-	1
16ffn	4
16ddd-	3
16ff	4
16ccc-	2
16ee-	4
16a-	3
16ee-	4
=4	=4
16bb-	1
16dd	4
16g	3
16dd	4
16f	2
16cc	4
16aa-	3
16cc	4
=5	=5
16aan	1
16cc#	4
16f#	3
16cc#	4
16e	2
16b	4
16gg	3
16b	4
=6	=6
16d#	1
16a#	4
16ff#	3
16a	4
16ee	2
16g#	4
16c#	3
16g#	4
=7	=7
16ffn	1
16an	4
16dn	3
16a	4
16B	2
16f#	4
16dd	3
16f#	4
=8	=8
16A#	1
16e#	4
16cc#	3
16e#	4
16b	2
16d#	4
16G#	3
16d#	4
=9	=9
16Gn	1
16cn	4
16ccn	3
16e	4
16a	2
16f#	4
16c#	3
16f#	4
=10	=10
16G	1
16e-	4
16a-	3
16e-	4
16f	2
16d	4
16A	3
16d	4
=11	=11
16G	1
16c#	4
16f#	3
16c#	4
16e-	2
16d	4
16A-	3
16d	4
=12	=12
16G	1
16c#	4
16f#	3
16c#	4
16e-	2
16d	4
16A-	3
16d	4
=13	=13
16G	1
16c#	4
16f#	3
16c#	4
16e-	2
16d	4
16A-	3
16d	4
=14	=14
16G	1
16c#	4
16f#	3
16c#	4
16e-	2
16d	4
16G#	3
16A#	4
=15	=15
16B	1
16c	4
16c#	3
16cn	4
16c#	2
16cn	4
16B	3
16c	4
=16	=16
16c#	1
16d	4
16c#	3
16cn	4
16B	2
16c	4
16c#	3
16d	4
=17	=17
16c#	1
16cn	4
16B	3
16c#	4
16c#	2
16d	4
16c#	3
16cn	4
=18	=18
*-	*-
